X: 2
T: Roddy McCorley
C: Ethna Carbery (1866-1902)
N: Ethna Carbery was the pseudonym of Anna MacManus, nee Johnston, (1866-1902), an Irish writer and poet.
Z: 2006 John Chambers <jc@trillian.mit.edu>
M: 4/4
L: 1/8
K: D
de | "D"f2 ef A2 de | "Bm"f3 e d3 A | "G"B2 d2 "A7"d2 e2 | "D"d6 ||
fg | "D"a2 a2 a2 fa | "G"b2 b2 "D"a2 fe | "Bm"d2B2 "Em"g2 f2 | "A7"e6 ||
fg | "D"a2 a2 a2 fa | "G"b2 b2 "D"a2 fe | "Bm"d2B2 "Em"g2 f2 | "A7"e6 ||
de | "D"f2 ef A2 de | "Bm"f3 e d2 AA | "G"B2 d2 "A7"d2 e2 | "D"d6 |]
